html/dist/img/PDF_icon.svg

<svg width="64" height="64" viewBox="0 0 64 64" fill="none" xmlns="http://www.w3.org/2000/svg">
<path d="M61.6005 24.7845C61.6005 20.7098 60.0139 16.879 57.1329 13.998L47.6026 4.46775C44.7215 1.58663 40.8909 0 36.8163 0H36.8161H19.6244C19.1065 0 18.6869 0.41975 18.6869 0.9375C18.6869 1.45525 19.1065 1.875 19.6244 1.875H34.7076C38.6234 1.875 41.8091 5.06075 41.8091 8.9765V13.8694C41.8091 17.1349 44.4658 19.7915 47.7313 19.7915H52.6241C56.5319 19.7915 59.712 22.9642 59.7251 26.869V58.0775C59.7251 60.3092 57.91 62.125 55.6789 62.125H14.7289C12.8821 62.125 11.2883 60.8949 10.818 59.1208L10.7779 53.3379H41.1838C45.311 53.3379 48.6688 49.9801 48.6688 45.8529V43.8261C48.6688 43.3084 48.2491 42.8886 47.7313 42.8886C47.2134 42.8886 46.7938 43.3084 46.7938 43.8261V45.8529C46.7938 48.9463 44.2771 51.4629 41.1838 51.4629H7.57688C5.75601 51.4629 4.27451 49.9814 4.27451 48.1605V27.8691C5.17138 28.6139 6.32263 29.0624 7.57688 29.0624H41.1836C44.277 29.0624 46.7936 31.579 46.7936 34.6724V40.076C46.7936 40.5938 47.2133 41.0135 47.7311 41.0135C48.249 41.0135 48.6686 40.5938 48.6686 40.076V34.6724C48.6686 30.5451 45.3109 27.1874 41.1836 27.1874H10.6824V5.9225C10.6824 3.69075 12.4975 1.875 14.7286 1.875H15.875C16.3929 1.875 16.8125 1.45525 16.8125 0.9375C16.8125 0.41975 16.3928 0 15.875 0H14.7288C11.4638 0 8.80751 2.65688 8.80751 5.9225V18.7076H7.57688C4.72201 18.7076 2.39951 21.0303 2.39951 23.885V48.1605C2.39951 51.0154 4.72201 53.3379 7.57688 53.3379H8.90263L8.94363 59.2465C8.94413 59.3177 8.95276 59.3886 8.96926 59.4579C9.60826 62.1322 11.9766 64 14.7288 64H55.6788C58.9438 64 61.6 61.3431 61.6 58.0775L61.6005 24.7845ZM7.57688 20.5826H8.80751V27.1874H7.57688C5.75601 27.1874 4.27451 25.7059 4.27451 23.885C4.27451 22.0641 5.75588 20.5826 7.57688 20.5826ZM52.624 17.9165H47.7311C45.4995 17.9165 43.684 16.101 43.684 13.8694V8.9765C43.684 6.443 42.6293 4.15162 40.9356 2.51787C42.9283 3.15987 44.7538 4.2705 46.2768 5.7935L55.807 15.3237C57.3301 16.8468 58.4406 18.6723 59.0826 20.6649C57.4489 18.9713 55.1574 17.9165 52.624 17.9165Z" fill="#E30613"/>
<path d="M40.1568 35.2216C40.6746 35.2216 41.0943 34.8019 41.0943 34.2841C41.0943 33.7664 40.6746 33.3466 40.1568 33.3466H35.3234C34.8055 33.3466 34.3859 33.7664 34.3859 34.2841V46.2098C34.3859 46.7275 34.8055 47.1473 35.3234 47.1473C35.8413 47.1473 36.2609 46.7275 36.2609 46.2098V41.0715H39.7729C40.2908 41.0715 40.7104 40.6517 40.7104 40.134C40.7104 39.6162 40.2908 39.1965 39.7729 39.1965H36.2609V35.2216H40.1568Z" fill="#E30613"/>
<path d="M23.0308 33.3466C22.7819 33.3466 22.5431 33.4456 22.3671 33.6219C22.1914 33.7981 22.0928 34.037 22.0933 34.286V34.2962V34.2966V46.0161C22.0933 46.0891 22.1024 46.1599 22.1183 46.228C22.123 46.4713 22.2216 46.7035 22.3944 46.8751C22.57 47.0495 22.8075 47.1473 23.0549 47.1473H23.0584C23.1603 47.1469 25.565 47.1376 26.5235 47.1209C28.1873 47.0919 29.6685 46.3381 30.6949 44.9987C31.6407 43.7642 32.1617 42.0768 32.1617 40.247C32.1617 36.1198 29.8495 33.3467 26.4083 33.3467H23.0308V33.3466ZM30.2867 40.247C30.2867 43.1514 28.7258 45.2071 26.4908 45.2461C25.9206 45.2561 24.7971 45.2635 23.9891 45.2679C23.9845 43.9 23.9768 41.396 23.9768 40.2339C23.9768 39.2613 23.9724 36.6389 23.9698 35.2217H26.4081C28.2833 35.2216 30.2867 36.5419 30.2867 40.247Z" fill="#E30613"/>
<path d="M12.8228 33.2588C12.5736 33.2588 12.3348 33.3579 12.1588 33.5344C11.984 33.7096 11.886 33.9469 11.8854 34.1942C11.8854 34.195 11.8851 34.1956 11.8851 34.1963V46.2098C11.8851 46.7275 12.3048 47.1473 12.8226 47.1473C13.3405 47.1473 13.7601 46.7275 13.7601 46.2098V41.9238C14.5381 41.9195 15.6173 41.9141 16.1678 41.9141C18.5906 41.9141 20.5618 39.9728 20.5618 37.5864C20.5618 35.2 18.5905 33.2586 16.1678 33.2586H12.8228V33.2588ZM18.6869 37.5865C18.6869 38.916 17.5333 40.0392 16.1679 40.0392C15.6204 40.0392 14.5563 40.0445 13.7783 40.0488C13.774 39.2499 13.7686 38.1451 13.7686 37.5865C13.7686 37.1152 13.7656 35.9646 13.7631 35.1338H16.1679C17.5333 35.1338 18.6869 36.2569 18.6869 37.5865Z" fill="#E30613"/>
</svg>

<svg width="64" height="64" viewBox="0 0 64 64" fill="none" xmlns="http://www.w3.org/2000/svg"><path d="M61.6 24.785c0-4.075-1.586-7.906-4.467-10.787l-9.53-9.53A15.154 15.154 0 0036.816 0H19.624a.937.937 0 100 1.875h15.084a7.11 7.11 0 017.101 7.101v4.893a5.929 5.929 0 005.922 5.922h4.893c3.908 0 7.088 3.173 7.101 7.078v31.209a4.051 4.051 0 01-4.046 4.047h-40.95a4.031 4.031 0 01-3.911-3.004l-.04-5.783h30.406c4.127 0 7.485-3.358 7.485-7.485v-2.027a.938.938 0 00-1.875 0v2.027a5.616 5.616 0 01-5.61 5.61H7.577a3.306 3.306 0 01-3.302-3.303V27.87a5.153 5.153 0 003.302 1.192h33.607a5.616 5.616 0 015.61 5.61v5.404a.937.937 0 101.875 0v-5.404c0-4.127-3.358-7.485-7.485-7.485H10.682V5.922a4.051 4.051 0 014.047-4.047h1.146a.937.937 0 100-1.875h-1.146a5.929 5.929 0 00-5.921 5.923v12.785H7.577A5.183 5.183 0 002.4 23.885V48.16a5.183 5.183 0 005.177 5.178h1.326l.04 5.908a1 1 0 00.026.212A5.9 5.9 0 0014.73 64h40.95a5.929 5.929 0 005.921-5.922V24.784zM7.577 20.583h1.23v6.604h-1.23a3.306 3.306 0 01-3.302-3.302 3.306 3.306 0 013.302-3.302zm45.047-2.666h-4.893a4.052 4.052 0 01-4.047-4.048V8.976a8.95 8.95 0 00-2.748-6.458 13.317 13.317 0 015.34 3.276l9.531 9.53a13.317 13.317 0 013.276 5.34 8.951 8.951 0 00-6.459-2.748z" fill="#E30613"/><path d="M40.157 35.222a.937.937 0 100-1.875h-4.834a.937.937 0 00-.937.937V46.21a.937.937 0 101.875 0v-5.14h3.512a.937.937 0 100-1.874H36.26v-3.975h3.896zM23.03 33.347a.938.938 0 00-.937.939v11.73c0 .073.01.144.025.212a.937.937 0 00.937.92h.003c.102-.001 2.507-.01 3.465-.027 1.664-.03 3.146-.783 4.172-2.122.946-1.235 1.467-2.922 1.467-4.752 0-4.127-2.313-6.9-5.754-6.9h-3.377zm7.257 6.9c0 2.904-1.561 4.96-3.796 5-.57.01-1.694.017-2.502.02a2059.77 2059.77 0 01-.012-5.033c0-.973-.005-3.595-.007-5.012h2.438c1.875 0 3.879 1.32 3.879 5.025zm-17.464-6.988a.937.937 0 00-.938.935V46.21a.938.938 0 001.875 0v-4.286c.778-.005 1.857-.01 2.408-.01 2.423 0 4.394-1.941 4.394-4.328 0-2.386-1.972-4.327-4.394-4.327h-3.345zm5.864 4.328c0 1.329-1.154 2.452-2.52 2.452-.547 0-1.61.005-2.389.01-.004-.8-.01-1.904-.01-2.462 0-.472-.002-1.622-.005-2.453h2.405c1.365 0 2.519 1.123 2.519 2.453z" fill="#E30613"/></svg>
